X: 9714
T: Dédicado à Joe
R: reel
M: 4/4
K: Bminor
|:"Bm"B2Bc d2de|fgfd B3f-|"F#"fgfd c3f-|"Bm"fgfd B2F2|
B3c d3e|fgfd B3f-|"F#"fgfe d2c2|1 "Bm"B4 "F#"F4:|2 "Bm"B4 "A"A4||
K: Dmaj
|:"D"d2fd fdfd|"G"g2dg d^gdg|"A"a3a a2a2-|a2g2 (3fef e2|a3a a2a2-|
"A"a2g2 (3fef e2|1 "D"d2df dfdf|"A"cfcf BfA2:|2 "D"d3A "A"BABc|"D"d4 "F#"c4||

